!!!COM: Scriabin, Alexander
!!!OTL@@FR: Prélude
!!!OTL@@EN: Prelude
!!!OPR@@FR: 4 Préludes
!!!OPR@@EN: 4 Preludes
!!!OPS: 39
!!!ONM: 1
!!!ODT: 1903
!!!AGN: Prelude
**kern	**kern	**dynam
*staff2	*staff1	*staff1/2
*Ipiano	*Ipiano	*
*clefF4	*clefG2	*
*k[f#c#g#d#a#e#]	*k[f#c#g#d#a#e#]	*
*F#:	*F#:	*
*M3/4	*M3/4	*
8r	8a#	.
=1	=1	=1
2DDn 2Dn	12bL	.
.	12f#	.
.	12GnJ	.
.	12G#XL	.
.	12B	.
.	12F#J	.
4BBB 4BB	12dnL	.
.	12a#	.
.	12dJ	.
=2	=2	=2
12BBBL 12BB	12f#L	.
12GGG##X 12GG##X	12dn	.
24r	12F#J	.
24AAA#Jk 24AA#	.	.
4FF# 4F#	12dL	.
.	12A#	.
.	12c#J	.
4EEn 4En	12f#L	.
.	12c#	.
.	12a#J	.
=3	=3	=3
2DDn 2Dn	12bL	.
.	12f#	.
.	12GnJ	.
.	12G#XL	.
.	12B	.
.	12F#J	.
4BBB 4BB	12dnL	.
.	12a#	.
.	12dJ	.
=4	=4	=4
12BBBL 12BB	12f#L	.
12GGG##X 12GG##X	12dn	.
24r	12F#J	.
24AAA#Jk 24AA#	.	.
4FF# 4F#	12dL	.
.	12A#	.
.	12c#J	.
4AAA# 4AA#	12e#L	.
.	12c#	.
.	12f#J	.
=5	=5	=5
2BBB-X 2BB-X	12gnL	.
.	12dn	.
.	12E-XJ	.
.	12EnL	.
.	12Gn	.
.	12DnJ	.
4GGGn 4GGn	12B-XL	.
.	12f#	.
.	12B-J	.
*	*clefF4	*
=6	=6	=6
12GGGnL 12GGn	12dnL	.
12EEEn 12EEn	12B-X	.
24r	12DnJ	.
24FFF#Jk 24FF#	.	.
4DDn 4Dn	12B-L	.
.	12F#	.
.	12AnJ	.
4FFF# 4FF#	12dL	.
.	12A	.
.	12c#J	.
=7	=7	=7
2AAAn 2AAn	12B#XL	.
.	12Dn	.
.	12F#J	.
.	12B#L	.
.	12F#	.
.	12B#J	.
4GGG# 4GG#	12g#L	.
.	12B#	.
.	12f#J	.
=8	=8	=8
2CC# 2C#	12e#L	.
.	12C#	.
.	12E#J	.
.	12AnL	.
.	12E#	.
.	12G#J	.
4BBB 4BB	12c#L	.
.	12G#	.
.	12e#J	.
=9	=9	=9
2AAAn 2AAn	12f#L	.
.	12c#	.
.	12DnJ	.
.	12D#XL	.
.	12F#	.
.	12C#J	.
4FFF# 4FF#	12AnL	.
.	12e#	.
.	12AJ	.
=10	=10	=10
12FFF#L 12FF#	12c#L	.
12DDD##X 12DD##X	12An	.
24r	12C#J	.
24EEE#Jk 24EE#	.	.
4CC# 4C#	12AL	.
.	12E#	.
.	12G#J	.
4GGG# 4GG#	12c#L	.
.	12B	.
.	12d#J	.
=11	=11	=11
2GGGn 2GGn	12enL	.
.	12B	.
.	12CnJ	.
.	12C#XL	.
.	12En	.
.	12BBJ	.
4EEEn 4EEn	12GnL	.
.	12d#	.
.	12GJ	.
=12	=12	=12
12EEEnL 12EEn	12BL	.
12CCC##X 12CC##X	12Gn	.
24r	12BBJ	.
24DDD#Jk 24DD#	.	.
4BBB 4BB	12GL	.
.	12D#	.
.	12F#J	.
*	*clefG2	*
4DDD# 4DD#	12BL	.
.	12f#	.
.	12bJ	.
=13	=13	=13
2EE-X 2E-X	12ccnL	.
.	12f#	.
.	12A-XJ	.
.	12AnL	.
.	12cn	.
.	12F#J	.
4CCn 4Cn	12d#L	.
.	12b	.
.	12d#J	.
=14	=14	=14
12CCnL 12Cn	12gnL	.
12AAA# 12AA#	12e-X	.
24r	12GnJ	.
24BBBJk 24BB	.	.
4GGn 4Gn	12e-L	.
.	12B	.
.	12dnJ	.
4BBB 4BB	12gL	.
.	12d	.
.	12f#J	.
=15	=15	=15
2.CC# 2.C#	12e#L	.
.	12G#X	.
.	12c#J	.
.	12e#L	.
.	12G#	.
.	12e#J	.
.	12cc#L	.
.	12e#	.
.	12bJ	.
=16	=16	=16
2.CC##X 2.C##X	12a#L	.
.	12E#	.
.	12A#J	.
.	12e#L	.
.	12A#	.
.	12e#J	.
.	12a#L	.
.	12e#	.
.	12a#J	.
=17	=17	=17
2.DD# 2.D#	12bL	.
.	12f##X	.
.	12cnJ	.
.	12c#XL	.
.	12f##	.
.	12F##XJ	.
.	12c#L	.
.	12f##	.
.	12a#J	.
=18	=18	=18
4GGG# 4GG#	12a#L	.
.	12f#X	.
.	12BJ	.
4CC##X 4C##X	12B#XL	.
.	12f#	.
.	12F#J	.
4DD# 4D#	12B#L	.
.	12f#	.
.	12g#J	.
=19	=19	=19
2.CC# 2.C#	12a#L	.
.	12e#	.
.	12A#J	.
.	12BL	.
.	12e#	.
.	12E#J	.
.	12BL	.
.	12e#	.
.	12g#J	.
=20	=20	=20
4FFF# 4FF#	12g#L	.
.	12en	.
.	12AnJ	.
4BBB#X 4BB#X	12A#XL	.
.	12e	.
.	12EnJ	.
4CC# 4C#	12A#L	.
.	12e	.
.	12f#J	.
=21	=21	=21
4BBB 4BB	12f#L	.
.	12d#	.
.	12AnJ	.
4BBB#X 4BB#X	12A#XL	.
.	12dn	.
.	12F#J	.
4CC# 4C#	12A#L	.
.	12c#	.
.	12f#J	.
=22	=22	=22
2.DDn 2.Dn	12f#L	.
.	12B#X	.
.	12AnJ	.
.	12A#XL	.
.	12B#	.
.	12F#J	.
.	12A#L	.
.	12B#	.
.	12f#J	.
=23	=23	=23
2CC# 2C#	12a#L	.
.	12d#	.
.	12A#J	.
.	12BL	.
.	12d#	.
.	12E#J	.
4CC# 4C#	12BL	.
.	12c#	.
.	12a#J	.
=24	=24	=24
2.FFF# 2.FF#	12g#L	.
.	12c#	.
.	12G##XJ	.
.	12A#L	.
.	12c#	.
.	12C#J	.
.	12A#L	.
.	12c#	.
.	12f#J	.
=25	=25	=25
4BBB 4BB	12f#L	.
.	12d#	.
.	12AnJ	.
4BBB#X 4BB#X	12A#XL	.
.	12dn	.
.	12F#J	.
4CC# 4C#	12A#L	.
.	12c#	.
.	12f#J	.
=26	=26	=26
2.DDn 2.Dn	12f#L	.
.	12B#X	.
.	12AnJ	.
.	12A#XL	.
.	12B#	.
.	12F#J	.
.	12A#L	.
.	12B#	.
.	12f#J	.
=27	=27	=27
2CC# 2C#	12a#L	.
.	12d#	.
.	12A#J	.
.	12BL	.
.	12d#	.
.	12E#J	.
4CC# 4C#	12BL	.
.	12c#	.
.	12a#J	.
=28	=28	=28
4FFF# 4FF#	12g#L	.
.	12c#	.
.	12G##XJ	.
4FF# 4F#	12A#L	.
.	12c#	.
.	12C#J	.
4EEn 4En	12A#L	.
.	12f#	.
.	12a#J	.
=29	=29	=29
2DDn 2Dn	12bL	.
.	12f#	.
.	12GnJ	.
.	12G#XL	.
.	12B	.
.	12F#J	.
4BBB 4BB	12dnL	.
.	12a#	.
.	12dJ	.
=30	=30	=30
12BBBL 12BB	12f#L	.
12GGG##X 12GG##X	12dn	.
24r	12F#J	.
24AAA#Jk 24AA#	.	.
4FF# 4F#	12dL	.
.	12A#	.
.	12c#J	.
4EEn 4En	12f#L	.
.	12c#	.
.	12a#J	.
=31	=31	=31
2DDn 2Dn	12bL	.
.	12f#	.
.	12GnJ	.
.	12G#XL	.
.	12B	.
.	12F#J	.
4BBB 4BB	12dnL	.
.	12a#	.
.	12dJ	.
=32	=32	=32
*	*^	*
2.FFF# 2.FF#	2.A# 2.f#	4dn	.
.	.	2c#	.
*	*v	*v	*
==	==	==
*-	*-	*-
!!!system-decoration: {(*)}
!!!ENC: Bryan Jacob Bell
!!!END: November 2021 to April 2022
!!!PED: Konstantin Igumnov and Yakov Milstein
!!!PTL: A.N. Skryabin: Polnoe sobranie sochinenii dlia fortepiano (Muzgiz)
